svgs/duotone/square-6.svg

<svg xmlns="http://www.w3.org/2000/svg" viewBox="0 0 448 512"><!-- Font Awesome Pro 6.0.0-alpha2 by @fontawesome - https://fontawesome.com License - https://fontawesome.com/license (Commercial License) --><defs><style>.fa-secondary{opacity:.4}</style></defs><path d="M224 240C202.938 240 184 254.094 177.969 274.281C176.656 278.688 176 283.281 176 288C176 314.469 197.531 336 224 336S272 314.469 272 288S250.469 240 224 240ZM384 32H64C28.654 32 0 60.654 0 96V416C0 451.346 28.654 480 64 480H384C419.346 480 448 451.346 448 416V96C448 60.654 419.346 32 384 32ZM224 384C171.062 384 128 340.938 128 288C128 246.699 155.549 214.711 168.281 203.594L248.219 133.906C252.781 129.938 258.406 128 264 128C270.688 128 277.344 130.781 282.094 136.219C290.812 146.219 289.75 161.375 279.781 170.094L250.021 196.037C290.268 207.467 320 244.141 320 288C320 340.938 276.938 384 224 384Z" class="fa-secondary"/><path d="M224 384C276.938 384 320 340.938 320 288C320 244.141 290.268 207.467 250.021 196.037L279.781 170.094C289.75 161.375 290.813 146.219 282.094 136.219C277.344 130.781 270.688 128 264 128C258.406 128 252.781 129.938 248.219 133.906L168.281 203.594C155.549 214.711 128 246.699 128 288C128 340.938 171.062 384 224 384ZM177.969 274.281C184 254.094 202.938 240 224 240C250.469 240 272 261.531 272 288S250.469 336 224 336S176 314.469 176 288C176 283.281 176.656 278.688 177.969 274.281Z" class="fa-primary"/></svg>

<svg xmlns="http://www.w3.org/2000/svg" viewBox="0 0 448 512"><!--! Font Awesome Pro 6.3.0 by @fontawesome - https://fontawesome.com License - https://fontawesome.com/license (Commercial License) Copyright 2023 Fonticons, Inc. --><defs><style>.fa-secondary{opacity:.4}</style></defs><path class="fa-primary" d="M224 384c52.94 0 96-43.06 96-96c0-43.86-29.73-80.53-69.98-91.96l29.76-25.94c9.969-8.719 11.03-23.88 2.312-33.88C277.3 130.8 270.7 128 264 128c-5.594 0-11.22 1.938-15.78 5.906L168.3 203.6C155.5 214.7 128 246.7 128 288C128 340.9 171.1 384 224 384zM177.1 274.3C184 254.1 202.9 240 224 240c26.47 0 48 21.53 48 48s-21.53 48-48 48S176 314.5 176 288C176 283.3 176.7 278.7 177.1 274.3z"/><path class="fa-secondary" d="M224 240c-21.06 0-40 14.09-46.03 34.28C176.7 278.7 176 283.3 176 288c0 26.47 21.53 48 48 48s48-21.53 48-48S250.5 240 224 240zM384 32H64C28.65 32 0 60.65 0 96v320c0 35.35 28.65 64 64 64h320c35.35 0 64-28.65 64-64V96C448 60.65 419.3 32 384 32zM224 384c-52.94 0-96-43.06-96-96c0-41.3 27.55-73.29 40.28-84.41l79.94-69.69C252.8 129.9 258.4 128 264 128c6.688 0 13.34 2.781 18.09 8.219c8.719 10 7.656 25.16-2.312 33.88l-29.76 25.94C290.3 207.5 320 244.1 320 288C320 340.9 276.9 384 224 384z"/></svg>
